src/assets/tulip/farm_card.svg

<svg width="50" height="50" viewBox="0 0 50 50" fill="none" xmlns="http://www.w3.org/2000/svg">
<circle cx="25" cy="25" r="25" fill="url(#paint0_linear)"/>
<path d="M18.6147 14.7785C19.6526 13.7405 21.3355 13.7405 22.3735 14.7785C22.5405 14.9454 22.6805 15.129 22.7938 15.324C23.8344 14.5292 25.3291 14.6079 26.2812 15.56C27.1027 16.3815 27.274 17.6069 26.7953 18.5968C27.0326 18.7177 27.2548 18.8784 27.4535 19.077C28.3835 20.007 28.4803 21.4547 27.7437 22.4924L33.9478 28.6973C34.8927 29.6423 34.7126 31.2076 33.7059 32.2142C32.7429 33.1772 31.2689 33.3839 30.3156 32.5731L30.1889 32.4562L23.984 26.2522C22.9462 26.9887 21.4985 26.892 20.5685 25.962C20.4318 25.8253 20.3132 25.6775 20.2125 25.5214C20.6083 27.3929 20.3835 28.9196 19.4741 30.0519L19.332 30.2194C18.1367 31.5541 18.7391 34.1353 20.6006 34.1353C22.7409 34.1353 23.3932 31.5629 21.5792 30.6299C21.0881 30.3773 20.8947 29.7744 21.1473 29.2833C21.3999 28.7921 22.0029 28.5988 22.494 28.8514C26.1881 30.7514 24.823 36.1353 20.6006 36.1353C16.8119 36.1353 15.6685 31.5308 17.7245 29.0224L17.842 28.8852C18.4511 28.205 18.583 27.0837 18.1404 25.447C17.7418 25.3245 17.3669 25.105 17.0516 24.7896C16.0995 23.8376 16.0207 22.3429 16.8153 21.301C16.6206 21.189 16.437 21.0489 16.2701 20.8819C15.2321 19.844 15.2321 18.1611 16.2701 17.1231L18.6147 14.7785ZM26.3546 23.933L25.4246 24.863L31.6031 31.042C31.6859 31.1247 32.0035 31.0882 32.2917 30.8C32.551 30.5407 32.6065 30.2575 32.5547 30.1432L32.5336 30.1115L26.3546 23.933ZM26.0393 20.4912C25.7824 20.2343 25.3658 20.2343 25.1089 20.4913L21.9827 23.6174C21.7258 23.8743 21.7258 24.2909 21.9827 24.5478C22.2396 24.8047 22.6562 24.8047 22.9131 24.5478L26.0393 21.4216C26.2962 21.1647 26.2962 20.7482 26.0393 20.4912ZM24.867 16.9743C24.6101 16.7173 24.1935 16.7173 23.9366 16.9743L18.4658 22.445C18.2089 22.702 18.2089 23.1185 18.4658 23.3754C18.7227 23.6324 19.1393 23.6324 19.3962 23.3754L24.867 17.9046C25.1239 17.6477 25.1239 17.2312 24.867 16.9743ZM20.9593 16.1927C20.7024 15.9358 20.2858 15.9358 20.0289 16.1927L17.6843 18.5373C17.4273 18.7942 17.4273 19.2108 17.6843 19.4677C17.9412 19.7247 18.3578 19.7247 18.6147 19.4677L20.9593 17.1231C21.2162 16.8662 21.2162 16.4496 20.9593 16.1927Z" fill="#2C3437" fill-opacity="0.8"/>
<defs>
<linearGradient id="paint0_linear" x1="50" y1="-1.09139e-05" x2="-1.24642" y2="1.3119" gradientUnits="userSpaceOnUse">
<stop stop-color="#AAF5D4"/>
<stop offset="1" stop-color="#7CE0D6"/>
</linearGradient>
</defs>
</svg>

<svg width="50" height="50" fill="none" xmlns="http://www.w3.org/2000/svg"><circle cx="25" cy="25" r="25" fill="url(#paint0_linear)"/><path d="M18.615 14.778a2.658 2.658 0 014.179.546 2.656 2.656 0 014.001 3.273 2.658 2.658 0 01.948 3.896l6.205 6.204c.945.945.765 2.51-.242 3.517-.963.963-2.437 1.17-3.39.36l-.127-.118-6.205-6.204a2.659 2.659 0 01-3.772-.73c.396 1.87.172 3.398-.738 4.53l-.142.167c-1.195 1.335-.593 3.916 1.269 3.916 2.14 0 2.792-2.572.978-3.505a1 1 0 11.915-1.779c3.694 1.9 2.329 7.284-1.893 7.284-3.79 0-4.932-4.604-2.877-7.113l.118-.137c.61-.68.741-1.801.298-3.438a2.658 2.658 0 01-1.325-4.146 2.658 2.658 0 01-.545-4.178l2.345-2.345zm7.74 9.155l-.93.93 6.178 6.179c.083.083.4.046.689-.242.259-.26.314-.543.263-.657l-.021-.032-6.18-6.178zm-.316-3.442a.658.658 0 00-.93 0l-3.126 3.126a.658.658 0 00.93.93l3.126-3.125a.658.658 0 000-.93zm-1.172-3.517a.658.658 0 00-.93 0l-5.471 5.471a.658.658 0 00.93.93l5.471-5.47a.658.658 0 000-.93zm-3.908-.781a.658.658 0 00-.93 0l-2.345 2.344a.658.658 0 10.93.93l2.345-2.344a.658.658 0 000-.93z" fill="#2C3437" fill-opacity=".8"/><defs><linearGradient id="paint0_linear" x1="50" y1="0" x2="-1.246" y2="1.312" gradientUnits="userSpaceOnUse"><stop stop-color="#AAF5D4"/><stop offset="1" stop-color="#7CE0D6"/></linearGradient></defs></svg>
